icons/thumbsdown-24.svg

<svg width="24" height="24" viewBox="0 0 24 24" fill="none" xmlns="http://www.w3.org/2000/svg">
<path d="M10.6512 21.6221C10.4891 21.9057 10.1622 22.0518 9.84285 21.9833L9.7157 21.9561C7.47565 21.4761 6.13877 19.168 6.83698 16.9861L7.47254 15H6.33571C3.69079 15 1.82316 12.4088 2.65956 9.89961L4.21868 5.22226C4.66105 3.89515 5.903 3 7.3019 3H12.591C13.6218 3 14.6196 3.35385 15.4187 3.9994C15.6997 3.40849 16.3021 3 17 3H19.25C20.2165 3 21 3.7835 21 4.75V13.25C21 14.2165 20.2165 15 19.25 15H14.5803C14.4906 15 14.4078 15.0481 14.3633 15.126L10.6512 21.6221ZM15.25 5.84032L14.5665 5.24227C14.0196 4.76375 13.3177 4.5 12.591 4.5H7.3019C6.54865 4.5 5.8799 4.982 5.6417 5.6966L4.08258 10.374C3.56995 11.9118 4.71463 13.5 6.33571 13.5H8.5C8.73949 13.5 8.96458 13.6144 9.10578 13.8078C9.24698 14.0012 9.28731 14.2505 9.21432 14.4786L8.26562 17.4433C7.88007 18.6481 8.50697 19.9157 9.63896 20.3701L13.0609 14.3818C13.3725 13.8365 13.9523 13.5 14.5803 13.5H15.25V5.84032ZM16.75 13.5H19.25C19.3881 13.5 19.5 13.3881 19.5 13.25V4.75C19.5 4.61193 19.3881 4.5 19.25 4.5H17C16.8619 4.5 16.75 4.61193 16.75 4.75V13.5Z" fill="black"/>
</svg>

<svg xmlns="http://www.w3.org/2000/svg" width="24" height="24" viewBox="0 0 24 24"><path d="M10.651 21.622a.748.748 0 0 1-.808.361l-.127-.027a3.875 3.875 0 0 1-2.879-4.97L7.473 15H6.336c-2.645 0-4.513-2.591-3.676-5.1l1.559-4.678A3.25 3.25 0 0 1 7.302 3h5.289c1.031 0 2.029.354 2.828.999A1.75 1.75 0 0 1 17 3h2.25c.966 0 1.75.784 1.75 1.75v8.5A1.75 1.75 0 0 1 19.25 15h-4.67a.251.251 0 0 0-.217.126l-3.712 6.496ZM15.25 5.84l-.684-.598a2.999 2.999 0 0 0-1.975-.742H7.302a1.75 1.75 0 0 0-1.66 1.197l-1.559 4.677A2.375 2.375 0 0 0 6.336 13.5H8.5a.75.75 0 0 1 .714.979l-.948 2.964a2.375 2.375 0 0 0 1.373 2.927l3.422-5.988a1.749 1.749 0 0 1 1.519-.882h.67V5.84Zm1.5 7.66h2.5a.25.25 0 0 0 .25-.25v-8.5a.25.25 0 0 0-.25-.25H17a.25.25 0 0 0-.25.25v8.75Z"/></svg>
